X:167
T:Leave off here. JJo8.167
B:J.Johnson Choice Collection Vol 8 1758
Z:vmp.Simon Wilson 2013 www.village-music-project.org.uk
M:6/8
L:1/8
Q:3/8=100
K:A
|:e|c/d/ece2e|c/d/eca2e|c/d/ec d/e/fe|dBBTB2e|
c/d/ece2e|c/d/eca2e|f/g/af g/a/bg|aAAA2:|
|:c/d/|e3cAc|efe cAc|d3BGB|ded BGB|
ece fdf|gega3|fdc Bag|aAAA3:|
